static/assets/img/icons/theme/general/visible.svg

<svg height="24" viewBox="0 0 24 24" width="24" xmlns="http://www.w3.org/2000/svg"><g fill="none" fill-rule="evenodd"><path d="m0 0h24v24h-24z" opacity="0"/><g fill="#000"><path d="m3 12s2.45454545-6 9-6c4.9090909 0 9 6 9 6s-4.0909091 6-9 6c-6.54545455 0-9-6-9-6z" fill-rule="nonzero" opacity=".3"/><path d="m12 15c-1.6568542 0-3-1.3431458-3-3s1.3431458-3 3-3 3 1.3431458 3 3-1.3431458 3-3 3z" opacity=".3"/></g></g></svg>

<svg width="24px" height="24px" viewBox="0 0 24 24" version="1.1" xmlns="http://www.w3.org/2000/svg" xmlns:xlink="http://www.w3.org/1999/xlink">
    <title>Icon For Visible</title>
    <g stroke="none" stroke-width="1" fill="none" fill-rule="evenodd">
        <rect opacity="0" x="0" y="0" width="24" height="24"></rect>
        <path d="M3,12 C3,12 5.45454545,6 12,6 C16.9090909,6 21,12 21,12 C21,12 16.9090909,18 12,18 C5.45454545,18 3,12 3,12 Z" fill="#000000" fill-rule="nonzero" opacity="0.3"></path>
        <path d="M12,15 C10.3431458,15 9,13.6568542 9,12 C9,10.3431458 10.3431458,9 12,9 C13.6568542,9 15,10.3431458 15,12 C15,13.6568542 13.6568542,15 12,15 Z" fill="#000000" opacity="0.3"></path>
    </g>
</svg>
